X: 1
T: Systerpolska
T: Orepolska
R: polska
O: Bengt Jonsson
Z: John Chambers <jc@trillian.mit.edu>
M: 3/4
L: 1/8
K: Gm
   D- \
| "Gm"G>B- d>(c "(D7)"B/c/)B/A/ | "Gm"G>B ~dB/d/ g2 | "Bb"f>e- dc "(D7)"BA/-B/ |1,3 "D7"c/-d/c/B/ B-A A :|2,4 "D7"c/-B/A/^F/ "Gm"G3 :|
|: A- \
| "Bb"B>c- ~BA/B/ "Eb"g>g | "Bb"ff/d/ "Cm"{d}ee cc | "F7"F2- ~F=E/F/ f>f- | ed/c/ "D7"d3 A- |
| "Gm"Bc/B/ "D7"A-G/^F/ "Gm"G>A | ~BA/G/ "D7"^F/-G/A [AD]>g- | "Gm"^f{f}g d>c- "D7"AA/c/ | B/-A/G/^F/ "Gm"G3 :|
